X: 658
T: Maurice Casey's fancy
C: anon.
O: Ireland
B: Francis O'Neill: "The Dance Music of Ireland" (1907) no. 658
R: Reel
Z: Transcribed by Frank Nordberg - http://www.musicaviva.com
F: http://www.musicaviva.com/abc/tunes/ireland/oneill-1001/oneill-1001-065
8.abc
M: C|
L: 1/8
K: Am
AcBc AGE^F|G2(BG) edBd|eaa^f gfed|AcBc AGEG|AcBc BGE^F|G2(BG) edBd|eaa^f
gfed|AcBG A2A2||
a2(ba) gede|gedB GABd|eaa^f gedB|AcBG A2A2|a2(ba) gede|gedB GABd|a^f (3(g
fe) fdec|dBgB  A2A2|]
W:
W:
W: From Musica Viva - http://www.musicaviva.com
W: the Internet center for free sheet music downloads.


